public/img/logo.svg

<svg width="40" height="40" viewBox="0 0 40 40" fill="none" xmlns="http://www.w3.org/2000/svg">
<g clip-path="url(#clip0_53_24)">
<path d="M0 20C0 8.9543 8.9543 0 20 0C31.0457 0 40 8.9543 40 20C40 31.0457 31.0457 40 20 40C8.9543 40 0 31.0457 0 20Z" fill="url(#paint0_linear_53_24)"/>
<path fill-rule="evenodd" clip-rule="evenodd" d="M43.2107 23.0979C43.2107 23.0979 37.5383 19.507 33.2539 19.507C27.5866 19.507 23.7974 24.4044 19.2131 24.4044C13.8703 24.4044 13.198 22.9892 10.2019 22.9892C5.96747 22.9892 0.378658 25.6429 -2.56875 24.6852C-4.94725 23.9123 -7.81065 22.3512 -7.81065 22.3512V35.4594L43.2107 36.2473V23.0979Z" fill="url(#paint1_linear_53_24)"/>
<path fill-rule="evenodd" clip-rule="evenodd" d="M-6.96973 31.8558C-6.96973 31.8558 -6.71107 23.6089 -0.847368 22.3194C4.2794 21.5526 8.232 27.5046 12.8163 27.5046C18.1591 27.5046 20.6771 24.0503 25.8644 24.0503C29.6478 24.0503 33.3422 27.0535 38.4943 26.0125C49.9379 23.7003 44.0516 23.3036 44.0516 23.3036V36.4118L-6.96973 37.1997V31.8558Z" fill="url(#paint2_linear_53_24)"/>
<path fill-rule="evenodd" clip-rule="evenodd" d="M-1.46149 32.3825C-1.46149 32.3825 0.999992 29.0743 2.93175 28.7413C4.8635 28.4082 5.93267 31.633 5.93267 31.633C5.93267 31.633 6.8371 31.492 7.32835 31.633C7.81959 31.7741 8.20858 32.3825 8.20858 32.3825C8.20858 32.3825 8.83426 30.4392 11.4323 30.4392C14.0304 30.4392 15.3504 33.0646 15.3504 33.0646C15.3504 33.0646 16.2152 32.3825 17.1158 32.3825C18.0164 32.3825 19.0358 33.0646 19.0358 33.0646C19.0358 33.0646 19.672 30.4392 22.3563 30.4392C25.0406 30.4392 26.1856 32.6672 26.1856 32.6672C26.1856 32.6672 27.2702 31.9828 28.324 31.9828C29.3778 31.9828 30.6354 32.6672 30.6354 32.6672C30.6354 32.6672 30.9883 30.5057 32.558 29.2318C34.1278 27.9578 37.5456 28.7413 37.5456 28.7413L39.4152 29.7254V40H-1.46149V32.3825Z" fill="url(#paint3_linear_53_24)"/>
<ellipse cx="24.7619" cy="9.52382" rx="3.33333" ry="3.33333" fill="#FEFFCA"/>
</g>
<defs>
<linearGradient id="paint0_linear_53_24" x1="0" y1="0" x2="0" y2="40" gradientUnits="userSpaceOnUse">
<stop stop-color="#A2E9FF"/>
<stop offset="0.552083" stop-color="#DDFDFF"/>
</linearGradient>
<linearGradient id="paint1_linear_53_24" x1="43.2107" y1="19.507" x2="43.2107" y2="36.2473" gradientUnits="userSpaceOnUse">
<stop stop-color="#AAF3FA"/>
<stop offset="1" stop-color="#D5FAFD"/>
</linearGradient>
<linearGradient id="paint2_linear_53_24" x1="-6.96973" y1="22.2512" x2="-6.96973" y2="37.1997" gradientUnits="userSpaceOnUse">
<stop stop-color="#7EDEE7"/>
<stop offset="1" stop-color="#B5F1F5"/>
</linearGradient>
<linearGradient id="paint3_linear_53_24" x1="-1.46149" y1="28.4429" x2="-1.46149" y2="40" gradientUnits="userSpaceOnUse">
<stop stop-color="#4297A8"/>
<stop offset="1" stop-color="#77C8D3"/>
</linearGradient>
<clipPath id="clip0_53_24">
<path d="M0 20C0 8.9543 8.9543 0 20 0C31.0457 0 40 8.9543 40 20C40 31.0457 31.0457 40 20 40C8.9543 40 0 31.0457 0 20Z" fill="white"/>
</clipPath>
</defs>
</svg>

<svg width="40" height="40" fill="none" xmlns="http://www.w3.org/2000/svg"><g clip-path="url(#clip0_53_24)"><path d="M0 20C0 8.954 8.954 0 20 0s20 8.954 20 20-8.954 20-20 20S0 31.046 0 20z" fill="url(#paint0_linear_53_24)"/><path fill-rule="evenodd" clip-rule="evenodd" d="M43.21 23.098s-5.672-3.591-9.956-3.591c-5.667 0-9.457 4.897-14.04 4.897-5.344 0-6.016-1.415-9.012-1.415-4.235 0-9.823 2.654-12.77 1.696-2.38-.773-5.243-2.334-5.243-2.334V35.46l51.022.788v-13.15z" fill="url(#paint1_linear_53_24)"/><path fill-rule="evenodd" clip-rule="evenodd" d="M-6.97 31.856s.259-8.247 6.123-9.537c5.126-.766 9.079 5.186 13.663 5.186 5.343 0 7.861-3.455 13.048-3.455 3.784 0 7.478 3.003 12.63 1.962 11.444-2.312 5.558-2.708 5.558-2.708v13.108L-6.97 37.2v-5.344z" fill="url(#paint2_linear_53_24)"/><path fill-rule="evenodd" clip-rule="evenodd" d="M-1.461 32.383S1 29.073 2.932 28.74c1.932-.333 3 2.892 3 2.892s.905-.141 1.396 0c.492.141.88.75.88.75s.626-1.944 3.224-1.944c2.598 0 3.918 2.626 3.918 2.626s.865-.682 1.766-.682c.9 0 1.92.682 1.92.682s.636-2.626 3.32-2.626c2.685 0 3.83 2.228 3.83 2.228s1.084-.684 2.138-.684c1.054 0 2.311.684 2.311.684s.353-2.161 1.923-3.435 4.988-.49 4.988-.49l1.87.983V40H-1.462v-7.617z" fill="url(#paint3_linear_53_24)"/><circle cx="24.762" cy="9.524" fill="#FEFFCA" r="3.333"/></g><defs><linearGradient id="paint0_linear_53_24" x1="0" y1="0" x2="0" y2="40" gradientUnits="userSpaceOnUse"><stop stop-color="#A2E9FF"/><stop offset=".552" stop-color="#DDFDFF"/></linearGradient><linearGradient id="paint1_linear_53_24" x1="43.211" y1="19.507" x2="43.211" y2="36.247" gradientUnits="userSpaceOnUse"><stop stop-color="#AAF3FA"/><stop offset="1" stop-color="#D5FAFD"/></linearGradient><linearGradient id="paint2_linear_53_24" x1="-6.97" y1="22.251" x2="-6.97" y2="37.2" gradientUnits="userSpaceOnUse"><stop stop-color="#7EDEE7"/><stop offset="1" stop-color="#B5F1F5"/></linearGradient><linearGradient id="paint3_linear_53_24" x1="-1.461" y1="28.443" x2="-1.461" y2="40" gradientUnits="userSpaceOnUse"><stop stop-color="#4297A8"/><stop offset="1" stop-color="#77C8D3"/></linearGradient><clipPath id="clip0_53_24"><path d="M0 20C0 8.954 8.954 0 20 0s20 8.954 20 20-8.954 20-20 20S0 31.046 0 20z" fill="#fff"/></clipPath></defs></svg>
